X:22
T:Polka
O:France
M:2/4
L:1/8
Q:1/4=160
K:G
D|G>F GB|d>c dB|cA FA|G/2F/2G/2A/2 GD|G>F GB|d>c dB|cA
FA|1G3:|2G4|
|:A>G Ad|B>A Bg|fe d^c|d/2^c/2d/2e/2 d2|A>G Ad|B>A Bg|fe
d^c|1d4:|2d3||
